X: 111
M: 3/4
L: 1/8
K: G
[|\
d^cde d2 | zG (3(FED) E>D | D6 |]"2" G2 B2 Hd2 |
e>f g2 f>e | d^cde d2 | G3 A B2 |]"5" e3 fgf |
d4 c2 | B3 A G2 | G6 |]"6" e2 dc B2 |\
d2 ^c3 d | dA D2 c2 | B2 e2 dc | BAGFGA |
fe/d/ ed/^c/ d2 | G>c B2 (G/A/B/c/) | d>f g2 d>c | B2 TA3 G |\

